public/svgs/mood-proud.svg

<svg width="95" height="63" viewBox="0 0 95 63" fill="none" xmlns="http://www.w3.org/2000/svg">
<mask id="mask0_2608_26027" style="mask-type:alpha" maskUnits="userSpaceOnUse" x="0" y="0" width="95" height="63">
<rect width="95" height="63" fill="#F2F2F2"/>
</mask>
<g mask="url(#mask0_2608_26027)">
<g style="mix-blend-mode:overlay" filter="url(#filter0_f_2608_26027)">
<path d="M31.3799 13.378C29.7158 8.87401 23.342 8.87401 21.6779 13.378L20.2678 17.1946C19.7451 18.6096 18.6299 19.7257 17.2148 20.2501L13.3732 21.6739C8.8756 23.3407 8.8756 29.6985 13.3732 31.3653L17.2148 32.789C18.6299 33.3135 19.7451 34.4296 20.2678 35.8446L21.6779 39.6612C23.342 44.1652 29.7158 44.1652 31.3799 39.6612L32.79 35.8446C33.3128 34.4296 34.428 33.3135 35.843 32.789L39.6846 31.3653C44.1822 29.6985 44.1822 23.3407 39.6846 21.6739L35.843 20.2501C34.428 19.7257 33.3128 18.6096 32.79 17.1946L31.3799 13.378Z" fill="#121212"/>
<path d="M63.2434 30.9707C60.47 23.4641 49.8468 23.4641 47.0735 30.9707L44.1039 39.0084C43.2326 41.3667 41.3739 43.2268 39.0154 44.1009L30.9388 47.0942C23.4428 49.8722 23.4428 60.4685 30.9388 63.2466L39.0154 66.2398C41.3739 67.1139 43.2326 68.9741 44.1039 71.3324L47.0735 79.3701C49.8468 86.8766 60.47 86.8767 63.2434 79.3701L66.213 71.3324C67.0843 68.9741 68.9429 67.1139 71.3014 66.2398L79.378 63.2466C86.874 60.4685 86.874 49.8722 79.378 47.0942L71.3014 44.1009C68.9429 43.2268 67.0843 41.3667 66.213 39.0084L63.2434 30.9707Z" fill="#121212"/>
</g>
</g>
<defs>
<filter id="filter0_f_2608_26027" x="6" y="6" width="83" height="83" filterUnits="userSpaceOnUse" color-interpolation-filters="sRGB">
<feFlood flood-opacity="0" result="BackgroundImageFix"/>
<feBlend mode="normal" in="SourceGraphic" in2="BackgroundImageFix" result="shape"/>
<feGaussianBlur stdDeviation="2" result="effect1_foregroundBlur_2608_26027"/>
</filter>
</defs>
</svg>

<svg width="95" height="63" fill="none" xmlns="http://www.w3.org/2000/svg"><mask id="a" style="mask-type:alpha" maskUnits="userSpaceOnUse" x="0" y="0" width="95" height="63"><path fill="#F2F2F2" d="M0 0h95v63H0z"/></mask><g style="mix-blend-mode:overlay" filter="url(#b)" fill="#121212" mask="url(#a)"><path d="M31.38 13.378c-1.664-4.504-8.038-4.504-9.702 0l-1.41 3.817a5.17 5.17 0 0 1-3.053 3.055l-3.842 1.424c-4.497 1.667-4.497 8.024 0 9.691l3.842 1.424a5.17 5.17 0 0 1 3.053 3.056l1.41 3.816c1.664 4.504 8.038 4.504 9.702 0l1.41-3.816a5.17 5.17 0 0 1 3.053-3.056l3.842-1.424c4.497-1.666 4.497-8.024 0-9.691l-3.842-1.424a5.17 5.17 0 0 1-3.053-3.055l-1.41-3.817ZM63.243 30.97c-2.773-7.506-13.396-7.506-16.17 0l-2.97 8.038a8.616 8.616 0 0 1-5.088 5.093l-8.076 2.993c-7.496 2.778-7.496 13.374 0 16.153l8.076 2.993a8.616 8.616 0 0 1 5.089 5.092l2.97 8.038c2.773 7.507 13.396 7.507 16.17 0l2.969-8.038a8.616 8.616 0 0 1 5.088-5.092l8.077-2.993c7.496-2.779 7.496-13.375 0-16.153l-8.077-2.993a8.616 8.616 0 0 1-5.088-5.093l-2.97-8.037Z"/></g><defs><filter id="b" x="6" y="6" width="83" height="83" filterUnits="userSpaceOnUse" color-interpolation-filters="sRGB"><feFlood flood-opacity="0" result="BackgroundImageFix"/><feBlend in="SourceGraphic" in2="BackgroundImageFix" result="shape"/><feGaussianBlur stdDeviation="2" result="effect1_foregroundBlur_2608_26027"/></filter></defs></svg>
